<?xml version="1.0" encoding="UTF-8"?>
<map version="1.10" tiledversion="1.12.2" orientation="orthogonal" renderorder="right-down" width="30" height="20" tilewidth="32" tileheight="32" infinite="0" nextlayerid="2" nextobjectid="1">
 <tileset firstgid="1" name="Tileset_61_MV" tilewidth="32" tileheight="32" tilecount="576" columns="24">
  <image source="../../../Downloads/Modern_Exteriors_RPG_Maker_MV/Tileset_61_MV.png" width="768" height="768"/>
 </tileset>
 <tileset firstgid="577" name="Tileset_25_MV" tilewidth="32" tileheight="32" tilecount="576" columns="24">
  <image source="../../../Downloads/Modern_Exteriors_RPG_Maker_MV/Tileset_25_MV.png" width="768" height="768"/>
 </tileset>
 <tileset firstgid="1153" name="Tileset_11_MV" tilewidth="32" tileheight="32" tilecount="576" columns="24">
  <image source="../../../Downloads/Modern_Exteriors_RPG_Maker_MV/Tileset_11_MV.png" width="768" height="768"/>
 </tileset>
 <layer id="1" name="Tile Layer 1" width="30" height="20">
  <data encoding="csv">
1135,1136,1137,1138,1139,1140,1135,1135,723,723,724,725,723,723,723,723,723,724,725,726,723,723,723,723,723,724,725,726,727,1140,
1135,723,724,725,726,727,1135,1136,1137,723,723,723,723,724,725,726,723,723,723,723,723,724,725,726,727,723,724,725,726,727,
1135,723,724,725,726,727,577,578,579,580,581,578,579,580,581,578,579,580,581,578,579,580,581,582,1136,723,724,725,726,727,
723,724,725,726,727,727,1087,873,874,873,874,875,876,873,874,875,876,873,874,875,873,874,876,606,1135,723,724,725,726,727,
723,724,725,726,727,727,1087,897,898,897,898,1016,1017,1017,1018,1017,1018,1017,1018,899,897,898,900,630,1135,723,723,724,725,726,
723,724,725,726,727,727,1087,921,922,921,922,1040,1041,1041,1042,1041,1042,1041,1043,923,921,922,924,606,1135,723,723,724,725,726,
723,724,725,726,727,727,1087,873,874,875,1039,632,577,578,579,580,581,582,635,876,873,874,876,630,1135,723,723,724,725,726,
723,724,725,726,727,727,1087,897,898,899,1063,1064,601,602,603,604,605,606,1067,900,897,898,900,606,1135,723,724,725,726,727,
723,724,725,726,727,727,1087,921,922,923,924,632,601,602,897,898,605,606,635,924,921,922,924,630,1135,723,724,725,726,727,
723,724,725,726,727,727,1087,873,874,875,876,656,673,611,921,922,608,678,659,875,876,874,876,606,1135,723,724,725,726,727,
1135,723,724,725,726,727,1087,897,898,899,900,680,681,635,945,946,632,682,683,899,900,898,900,630,1135,723,724,725,726,727,
1135,723,724,725,726,727,1087,873,874,875,876,704,705,706,969,970,705,706,707,876,873,874,876,606,1135,723,724,725,726,727,
723,723,724,725,726,727,1087,897,898,899,900,900,897,898,899,900,897,898,899,900,897,898,900,606,723,724,725,726,727,726,
723,724,725,726,727,727,1087,921,922,923,924,924,921,922,923,924,921,922,923,924,921,922,924,630,723,724,725,726,727,726,
723,724,725,726,727,727,1087,1088,1089,1090,1090,1090,1090,1090,1090,1090,1090,1090,1090,1090,1090,1090,1090,1092,723,724,725,726,727,726,
723,724,725,726,727,727,1111,1112,1113,1114,1114,1114,1114,1114,1114,1114,1114,1114,1114,1114,1114,1114,1114,1116,723,724,725,726,727,726,
723,724,725,726,727,727,1135,1136,1137,1138,1139,1140,1135,1136,1137,1138,1139,1140,1140,1140,1135,1136,1137,1138,723,724,725,726,727,727,
723,724,725,726,727,723,723,723,723,724,725,726,727,723,723,723,724,725,726,727,1135,723,723,723,723,724,725,726,727,727,
1135,723,723,723,723,723,724,725,726,723,723,723,723,723,723,723,724,725,726,723,723,723,724,723,723,724,725,726,727,727,
723,723,724,725,723,724,725,726,727,1135,1135,1135,1135,723,724,725,723,723,723,723,724,725,726,727,1136,1137,1138,1139,1140,1140
</data>
 </layer>
</map>
